img/call.svg

<svg width="30" height="30" viewBox="0 0 30 30" fill="none" xmlns="http://www.w3.org/2000/svg">
<g clip-path="url(#clip0)">
<path d="M20.7593 15.4918C20.6962 15.5474 20.6781 15.6149 20.6314 15.699C20.5304 15.9859 20.6832 16.3166 20.9701 16.4176C21.2569 16.5186 21.5876 16.3657 21.6886 16.0789C21.7067 16.0113 21.7249 15.9437 21.7776 15.8371C21.8078 15.7245 21.8259 15.6569 21.844 15.5893C22.019 14.9359 22.0754 14.275 22.0356 13.6123C21.9766 12.7514 21.6906 11.9262 21.2843 11.1895C20.7731 10.304 20.0498 9.57896 19.1535 9.04903C18.7331 8.81565 18.2555 8.61526 17.7824 8.48849C17.6247 8.44623 17.467 8.40397 17.2807 8.37821C17.117 8.35848 16.9533 8.33875 16.7895 8.31903C16.4846 8.28561 16.2033 8.52416 16.1985 8.81262C16.1651 9.11757 16.4036 9.39881 16.6921 9.40366C16.8333 9.41735 16.952 9.42501 17.0871 9.46123C17.1097 9.46726 17.1322 9.4733 17.1547 9.47934C17.2674 9.50952 17.386 9.51717 17.4987 9.54736C18.7378 9.87937 19.754 10.6829 20.3417 11.7338C20.9354 12.7621 21.1352 13.9989 20.8257 15.244L20.8137 15.2891C20.7895 15.3792 20.7714 15.4468 20.7593 15.4918Z" fill="#08415C"/>
<path d="M25.2734 9.74108C23.7066 7.02733 21.128 4.93587 17.8838 4.06658C17.5458 3.97603 17.2019 3.90801 16.8579 3.83999C16.5139 3.77197 16.1639 3.72648 15.8078 3.70352C15.5029 3.6701 15.2217 3.90865 15.2168 4.19711C15.1834 4.50206 15.4219 4.7833 15.7104 4.78815C15.8741 4.80788 16.0153 4.82157 16.1791 4.8413C16.3428 4.86103 16.5066 4.88075 16.6643 4.92301C16.9857 4.98499 17.2846 5.04094 17.6 5.12546C20.5288 5.91022 22.8673 7.8166 24.2917 10.2507C25.6936 12.6788 26.1753 15.6572 25.3845 18.6085C25.3422 18.7662 25.294 18.9465 25.2517 19.1042C25.2155 19.2394 25.1567 19.3685 25.1145 19.5262C25.0135 19.813 25.1663 20.1438 25.4532 20.2448C25.74 20.3458 26.0707 20.1929 26.1717 19.9061C26.2848 19.5742 26.3979 19.2423 26.4824 18.9269C27.3456 15.7052 26.8237 12.4263 25.2734 9.74108Z" fill="#08415C"/>
<path d="M24.206 24.088L20.7919 20.8792C19.6558 19.8021 19.484 20.2632 17.6888 21.3758C17.2542 21.6457 16.3699 22.4229 15.6747 22.0435C14.2228 21.244 11.9263 18.1898 11.2577 16.8999C10.9399 16.2835 9.63628 13.3988 9.819 12.6268C10.0879 11.4432 12.8131 11.5456 12.5772 9.09188L11.8659 4.62732C11.2249 0.350653 4.91943 5.22899 4.53577 8.19282C3.63758 15.5101 12.9515 30.2239 20.8536 28.3088C22.6149 27.8632 25.4905 25.4222 24.206 24.088Z" fill="#08415C"/>
</g>
<defs>
<clipPath id="clip0">
<rect width="24" height="24" fill="white" transform="translate(6.51477 0.30304) rotate(15)"/>
</clipPath>
</defs>
</svg>

<svg width="30" height="30" viewBox="0 0 30 30" fill="none" xmlns="http://www.w3.org/2000/svg"><g clip-path="url(#a)" fill="#08415C"><path d="M20.76 15.492c-.064.055-.082.123-.129.207a.57.57 0 0 0 .34.719.57.57 0 0 0 .718-.34c.018-.067.036-.134.089-.24l.066-.249a6.165 6.165 0 0 0 .192-1.977c-.06-.86-.345-1.686-.752-2.422a5.903 5.903 0 0 0-2.13-2.141 6.188 6.188 0 0 0-1.372-.56 3.951 3.951 0 0 0-.501-.11l-.491-.06c-.305-.033-.587.205-.591.494-.034.305.205.586.493.59.141.014.26.022.395.058l.068.018c.112.03.231.038.344.068a4.614 4.614 0 0 1 2.843 2.187 4.7 4.7 0 0 1 .484 3.51l-.012.045-.055.203z"/><path d="M25.273 9.741a12.11 12.11 0 0 0-8.415-5.901 8.091 8.091 0 0 0-1.05-.136c-.305-.034-.586.205-.591.493-.034.305.205.586.493.591.164.02.305.034.47.053.163.02.327.04.484.082.322.062.62.118.936.202 2.929.785 5.267 2.692 6.692 5.126a10.98 10.98 0 0 1 1.092 8.357l-.132.496c-.037.135-.095.265-.137.422a.57.57 0 0 0 .338.719.57.57 0 0 0 .719-.339c.113-.332.226-.664.31-.98.864-3.22.342-6.5-1.209-9.185zM24.206 24.088l-3.414-3.209c-1.136-1.077-1.308-.616-3.103.497-.435.27-1.32 1.047-2.014.668-1.452-.8-3.749-3.854-4.417-5.144-.318-.616-1.622-3.501-1.439-4.273.269-1.184 2.994-1.081 2.758-3.535l-.711-4.465c-.641-4.276-6.947.602-7.33 3.566-.898 7.317 8.416 22.03 16.318 20.116 1.76-.446 4.637-2.887 3.352-4.221z"/></g><defs><clipPath id="a"><path fill="#fff" transform="rotate(15 2.106 24.894)" d="M0 0h24v24H0z"/></clipPath></defs></svg>
